res/skins/Tango/buttons/btn_deck2_vu_label.svg

<?xml version="1.0" encoding="UTF-8" standalone="no"?>
<!-- Created with Inkscape (http://www.inkscape.org/) -->

<svg
   xmlns:dc="http://purl.org/dc/elements/1.1/"
   xmlns:cc="http://creativecommons.org/ns#"
   xmlns:rdf="http://www.w3.org/1999/02/22-rdf-syntax-ns#"
   xmlns:svg="http://www.w3.org/2000/svg"
   xmlns="http://www.w3.org/2000/svg"
   xmlns:sodipodi="http://sodipodi.sourceforge.net/DTD/sodipodi-0.dtd"
   xmlns:inkscape="http://www.inkscape.org/namespaces/inkscape"
   version="1.1"
   width="16"
   height="20"
   id="svg2"
   sodipodi:docname="btn_deck2_vu_label.svg"
   inkscape:version="0.92.3 (unknown)">
  <sodipodi:namedview
     pagecolor="#ffffff"
     bordercolor="#666666"
     borderopacity="1"
     objecttolerance="10"
     gridtolerance="10"
     guidetolerance="10"
     inkscape:pageopacity="0"
     inkscape:pageshadow="2"
     inkscape:window-width="1366"
     inkscape:window-height="740"
     id="namedview4400"
     showgrid="false"
     inkscape:zoom="11.313708"
     inkscape:cx="14.275835"
     inkscape:cy="2.8847909"
     inkscape:window-x="0"
     inkscape:window-y="0"
     inkscape:window-maximized="1"
     inkscape:current-layer="svg2"
     inkscape:snap-global="false">
    <inkscape:grid
       type="xygrid"
       id="grid4947" />
  </sodipodi:namedview>
  <defs
     id="defs4132" />
  <metadata
     id="metadata14">
    <rdf:RDF>
      <cc:Work
         rdf:about="">
        <dc:format>image/svg+xml</dc:format>
        <dc:type
           rdf:resource="http://purl.org/dc/dcmitype/StillImage" />
        <dc:title />
      </cc:Work>
    </rdf:RDF>
  </metadata>
  <path
     inkscape:connector-curvature="0"
     id="path5597"
     style="font-style:normal;font-variant:normal;font-weight:normal;font-stretch:normal;font-size:18.66666603px;line-height:125%;font-family:'Open Sans';-inkscape-font-specification:'Open Sans';letter-spacing:0px;word-spacing:0px;fill:#b4b4b4;fill-opacity:1;stroke:#b4b4b4;stroke-width:0.99999994px;stroke-linecap:butt;stroke-linejoin:miter;stroke-opacity:1"
     d="M 11.499604,15.510596 H 4.144539 V 14.41666 L 7.0911572,11.456149 Q 8.438182,10.094467 8.8667812,9.5130744 9.2953805,8.931682 9.5096797,8.3808892 9.7239789,7.8300964 9.7239789,7.1951547 q 0,-0.8950384 -0.5434019,-1.4152315 -0.543402,-0.5278431 -1.50775,-0.5278431 -0.6964733,0 -1.3240648,0.229497 Q 5.7288246,5.711074 4.9634696,6.3154162 L 4.2899564,5.4509774 Q 5.8359742,4.1657943 7.65752,4.1657943 q 1.5766318,0 2.472097,0.8108894 0.895466,0.8032395 0.895466,2.1649217 0,1.0633361 -0.596977,2.1037225 -0.5969767,1.0403861 -2.2348372,2.6315661 l -2.4491372,2.394418 v 0.0612 h 5.7554724 z" />
</svg>

<!-- Created with Inkscape (http://www.inkscape.org/) -->
<svg id="svg2" width="16" height="20" version="1.1" xmlns="http://www.w3.org/2000/svg"><path id="path5597" d="m11.5 15.511h-7.3551v-1.0939l2.9466-2.9605q1.347-1.3617 1.7756-1.9431 0.4286-0.58139 0.6429-1.1322t0.2143-1.1857q0-0.89504-0.5434-1.4152-0.5434-0.52784-1.5078-0.52784-0.69647 0-1.3241 0.2295-0.61994 0.2295-1.3853 0.83384l-0.67351-0.86444q1.546-1.2852 3.3676-1.2852 1.5766 0 2.4721 0.81089 0.89547 0.80324 0.89547 2.1649 0 1.0633-0.59698 2.1037-0.59698 1.0404-2.2348 2.6316l-2.4491 2.3944v0.0612h5.7555z" fill="#b4b4b4" stroke="#b4b4b4" stroke-width="1px"/></svg>
